X: 160097
T: Paddy Reynolds' Dream
S: Mick Moloney
Z: B.Black
R: jig
M: 6/8
L: 1/8
K: D
F | EGA =cBc | Adc d2 e | fag efd | ABG FED |
Adf afd | Bcd eag | fed ecA | GEA D2 :|
A | dcd faf | gec d2 A | dcd AGA | =cBc EFG |
dcd faf | gec Ace | dcd AGA | GEA D2 :|
G | d3 a3 | gfg a3 | d3 a2 f | gef gfe |
def dcA | GAB AFD | Ace GBd | AFE D2 :|
